X:1
T:James Gibb editions
T:When I survey the wondrous cross - Barnby
%%score [ ( 1 2 ) ( 3 4 ) ]
L:1/8
Q:1/4=54
M:4/4
K:Eb
V:1 treble nm="Midi_74"
V:2 treble 
V:3 bass nm="Midi_74"
V:4 bass 
V:1
"^Isaac Watts\n(1674-1748)""^L.M.""^When I survey the wondrous cross""^Joseph Barnby\n(1838-96)"!mf! G2 | %1
 A3 A!<(! G2 c2!<)! | c2 =B2 e2 ||!>(! e2 | d2 c2!>)! B2!p! GF | E2 A2 F2 ||[M:4/4] G2 | %7
 A2 G^F G2!<(! B2 | c2 d2!<)! =B2 || c2 | d2 e2!>(! =B2 c2!>)! | EF G2 C4 || F4 =E4 |] %13
V:2
 D2 | D2 D2 D2 G2 | A2 G2 G2 || F2 | F2 F2 G2 D2- | E2 F2 D2 ||[M:4/4] D2 | E2 D2 D2 D2 | %8
 E2 D2 D2 || C2 | F2 E2 D2 C2 | C2 =B,2 C4 || C4 C4 |] %13
V:3
 =B,2 | C2 C2 =B,2 C2 | D2 D2 C2 || =A,2 | B,2 A,2 G,2!p! B,A, | G,2 C2 B,2 ||[M:4/4] B,2 | %7
 A,C B,=A, B,2"^1. When I survey the wond'rous cross\nOn which the Prince of Glory dy'd,\nMy richest gain I count but Loss,\nAnd pour contempt on all my pride.\n\n2. Forbid it, Lord, that I should boast,\nSave in the death of Christ my God:\nAll the vain things that charm me most,\nI sacrifice them to his blood.\n\n3. See from his head, his hands, his feet,\nSorrow and love flow mingled down!\nDid e'er such love and sorrow meet?\nOr thorns compose so rich a crown?\n\n4. His dying crimson, like a robe,\nSpreads o'er his body on the tree;\nThen am I dead to all the globe,\nAnd all the globe is dead to me.\n\n5. Were the whole realm of nature mine,\nThat were a present far too small;\nLove so amazing, so divine,\nDemands my soul, my life, my all." B,2 | %8
 =A,2 A,2 G,2 || G,2 | A,2 G,2 F,2 E,F, | G,2 F,2 E,4 || A,4 G,4 |] %13
V:4
 G,2 | G,2 F,2 F,2 E,2 | F,2 G,2 C,2 || C,2 | D,2 D,2 E,2 B,,2 | C,2 A,,2 B,,2 ||[M:4/4] B,,2 | %7
 C,2 D,2 G,2 G,2 | G,2 F,2 F,2 || E,2 | =B,,2 C,2 G,,2 A,,2 | G,,2 G,,2 C,4 || F,,4 C,4 |] %13

